src/basic/100/u25A1-square.svg

<svg width="94" height="128" viewBox="0 0 94 128" fill="none" xmlns="http://www.w3.org/2000/svg">
<path fill-rule="evenodd" clip-rule="evenodd" d="M0.98464,18.0053h0.5h91.04156h0.5v0.5v90.9997v0.5h-0.5h-91.04156h-0.5v-0.5v-90.9997zM1.98464,19.0053v89.9997h90.04156v-89.9997z" fill="black"/>
</svg>

<svg width="94" height="128" viewBox="0 0 94 128" fill="none" xmlns="http://www.w3.org/2000/svg">
<path fill-rule="evenodd" clip-rule="evenodd" d="M0.98464 18.0053H1.48464H92.5262H93.0262V18.5053V109.505V110.005H92.5262H1.48464H0.98464V109.505V18.5053V18.0053ZM1.98464 19.0053V109.005H92.0262V19.0053H1.98464Z" fill="black"/>
</svg>
